public/img/decorations/deco-blob-2.svg

<svg width="298" height="197" fill="none" xmlns="http://www.w3.org/2000/svg"><path d="M271.518 116.857c-5.402 8.654-11.934 16.43-18.324 24.307-4.834 5.961-9.646 11.939-14.611 17.789-2.449 2.887-5.221 5.5-7.85 8.232-.852.887-1.812 1.686-2.561 2.648-2.445 3.146-5.6 5.619-8.027 8.818-2.564 3.381-6.305 5.494-9.941 7.637-8.246 4.857-17.18 7.521-26.594 9.078-9.48 1.566-18.977 1.621-28.508 1.383-6.891-.174-13.379-2.283-19.555-5.029-9.025-4.016-18.346-7.166-27.752-10.025-5.662-1.721-11.584-2.68-17.447-3.623-7.893-1.271-15.865-2.051-23.758-3.324-5.1-.824-10.195-1.092-15.32-.904-9.871.361-19.65-.988-29.471-1.525-4.566-.25-9.176-.99-13.477-2.891-4.848-2.139-7.672-5.568-7.82-11.072-.168-6.301.643-12.484 1.859-18.631 1.695-8.578 4.586-16.805 7.279-25.1 1.795-5.525 4.404-10.557 7.498-15.434 3.125-4.93 5.695-10.227 9.018-15.01 2.787-4.012 6.062-7.766 9.574-11.168 3.502-3.393 8.105-5.16 12.758-6.543 1.047-.311 2.242-.223 3.363-.172 4.412.195 8.721.916 13.047 1.922 6.574 1.529 13.008 3.82 19.811 4.246 2.855.18 5.729.15 8.592.092 4.816-.098 9.629-.322 14.445-.441 5.254-.131 10.156-1.367 14.434-4.535 7.576-5.609 15.148-11.227 22.676-16.904 5.48-4.135 10.973-8.262 16.301-12.59 6.68-5.426 13.104-11.17 19.811-16.559 5.74-4.613 11.451-9.264 17.855-13.021 3.658-2.148 7.648-3.418 11.432-5.209 1.887-.895 4.16-1.131 6.289-1.326 5.811-.535 11.633-1.041 17.463-1.271 5.162-.203 10.184.807 15.09 2.486 7.783 2.666 15.24 5.938 22.307 10.229 4.404 2.672 8.729 5.279 12.176 9.184 1.758 1.99 3.875 3.67 5.607 5.682 7.594 8.807 9.58 18.92 7.115 30.182-1.258 5.746-3.113 11.258-5.316 16.674-3.361 8.26-6.543 16.607-10.26 24.707-2.685 5.845-6.113 11.351-9.208 17.011zM95.393 132.113l.527-.139-.455-1.777-.543.141c.156.592.314 1.183.471 1.775zm130.287 26.291c.15-.061.305-.111.441-.193.021-.012-.018-.225-.059-.234-.146-.037-.307-.029-.461-.039.026.154.051.31.079.466z" fill="#000"/></svg>

<svg width="298" height="197" viewBox="0 0 298 197" fill="none" xmlns="http://www.w3.org/2000/svg">
<path d="M271.518 116.857C266.116 125.511 259.584 133.287 253.194 141.164C248.36 147.125 243.548 153.103 238.583 158.953C236.134 161.84 233.362 164.453 230.733 167.185C229.881 168.072 228.921 168.871 228.172 169.833C225.727 172.979 222.572 175.452 220.145 178.651C217.581 182.032 213.84 184.145 210.204 186.288C201.958 191.145 193.024 193.809 183.61 195.366C174.13 196.932 164.633 196.987 155.102 196.749C148.211 196.575 141.723 194.466 135.547 191.72C126.522 187.704 117.201 184.554 107.795 181.695C102.133 179.974 96.211 179.015 90.348 178.072C82.455 176.801 74.483 176.021 66.59 174.748C61.49 173.924 56.395 173.656 51.27 173.844C41.399 174.205 31.62 172.856 21.799 172.319C17.233 172.069 12.623 171.329 8.32199 169.428C3.47399 167.289 0.64998 163.86 0.50198 158.356C0.33398 152.055 1.14497 145.872 2.36097 139.725C4.05597 131.147 6.94698 122.92 9.63998 114.625C11.435 109.1 14.044 104.068 17.138 99.191C20.263 94.261 22.833 88.964 26.156 84.181C28.943 80.169 32.218 76.415 35.73 73.013C39.232 69.62 43.835 67.853 48.488 66.47C49.535 66.159 50.73 66.247 51.851 66.298C56.263 66.493 60.572 67.214 64.898 68.22C71.472 69.749 77.906 72.04 84.709 72.466C87.564 72.646 90.438 72.616 93.301 72.558C98.117 72.46 102.93 72.236 107.746 72.117C113 71.986 117.902 70.75 122.18 67.582C129.756 61.973 137.328 56.355 144.856 50.678C150.336 46.543 155.829 42.416 161.157 38.088C167.837 32.662 174.261 26.918 180.968 21.529C186.708 16.916 192.419 12.265 198.823 8.50796C202.481 6.35996 206.471 5.08997 210.255 3.29897C212.142 2.40397 214.415 2.16795 216.544 1.97295C222.355 1.43795 228.177 0.931955 234.007 0.701955C239.169 0.498955 244.191 1.50895 249.097 3.18795C256.88 5.85395 264.337 9.12595 271.404 13.417C275.808 16.089 280.133 18.696 283.58 22.601C285.338 24.591 287.455 26.2709 289.187 28.2829C296.781 37.0899 298.767 47.203 296.302 58.465C295.044 64.211 293.189 69.723 290.986 75.139C287.625 83.399 284.443 91.746 280.726 99.846C278.041 105.691 274.613 111.197 271.518 116.857ZM95.393 132.113C95.569 132.066 95.745 132.021 95.92 131.974C95.768 131.382 95.617 130.788 95.465 130.197C95.283 130.244 95.102 130.291 94.922 130.338C95.078 130.93 95.236 131.521 95.393 132.113ZM225.68 158.404C225.83 158.343 225.985 158.293 226.121 158.211C226.142 158.199 226.103 157.986 226.062 157.977C225.916 157.94 225.755 157.948 225.601 157.938C225.627 158.092 225.652 158.248 225.68 158.404Z" fill="black"/>
</svg>
